Point/img/best4.svg

<svg width="120" height="129" viewBox="0 0 120 129" fill="none" xmlns="http://www.w3.org/2000/svg">
<path fill-rule="evenodd" clip-rule="evenodd" d="M70.838 2.45555C56.3698 1.01031 29.2743 -3.27122 17.2203 4.65562C5.05884 12.6531 2.78466 28.0242 0.439934 42.1333C-1.66564 54.8033 4.29472 66.6164 7.57549 79.0472C11.1396 92.5515 3.74394 109.959 14.0893 119.596C24.8846 129.652 51.4374 129.055 66.2198 126.963C80.1663 124.99 84.661 115.012 96.2221 107.162C108.115 99.0869 111.859 109.349 116.162 95.8643C120.469 82.3694 122.03 57.6053 116.162 44.681C111.038 33.3946 108.638 20.5876 98.863 12.7359C88.7574 4.61845 83.8682 3.75717 70.838 2.45555Z" fill="#E1F0EE"/>
<path d="M59.9153 64.7083C66.5333 64.7083 71.8983 59.3433 71.8983 52.7252C71.8983 46.1072 66.5333 40.7422 59.9153 40.7422C53.2972 40.7422 47.9323 46.1072 47.9323 52.7252C47.9323 59.3433 53.2972 64.7083 59.9153 64.7083Z" stroke="#00325A" stroke-width="4.79321"/>
<path d="M71.8982 88.6744H43.7764C43.0967 88.6745 42.4247 88.5301 41.8051 88.2507C41.1855 87.9713 40.6323 87.5633 40.1824 87.0538C39.7325 86.5443 39.3961 85.9449 39.1956 85.2954C38.995 84.646 38.9349 83.9613 39.0192 83.2868L39.9538 75.7998C40.1712 74.0604 41.0165 72.4603 42.3309 71.3005C43.6452 70.1406 45.338 69.5009 47.0909 69.5015H47.9322" stroke="#00325A" stroke-width="4.79321" stroke-linecap="round" stroke-linejoin="round"/>
<path d="M69.5016 74.2947L74.894 79.088L83.8812 69.5015" stroke="#00325A" stroke-width="4.79321" stroke-linecap="round" stroke-linejoin="round"/>
</svg>

<svg width="120" height="129" fill="none" xmlns="http://www.w3.org/2000/svg"><path fill-rule="evenodd" clip-rule="evenodd" d="M70.838 2.456C56.37 1.01 29.274-3.271 17.22 4.656 5.06 12.653 2.785 28.024.44 42.133c-2.106 12.67 3.855 24.483 7.135 36.914 3.565 13.505-3.831 30.912 6.514 40.549 10.796 10.056 37.348 9.459 52.13 7.367 13.947-1.973 18.442-11.951 30.003-19.801 11.893-8.075 15.637 2.187 19.94-11.298 4.307-13.495 5.868-38.259 0-51.183-5.124-11.286-7.524-24.093-17.299-31.945-10.106-8.118-14.995-8.979-28.025-10.28z" fill="#E1F0EE"/><path d="M59.915 64.708c6.618 0 11.983-5.365 11.983-11.983s-5.365-11.983-11.983-11.983-11.983 5.365-11.983 11.983 5.365 11.983 11.983 11.983z" stroke="#00325A" stroke-width="4.793"/><path d="M71.898 88.674H43.776a4.794 4.794 0 01-4.757-5.387l.935-7.487a7.19 7.19 0 017.136-6.3h.841m21.571 4.795l5.392 4.793 8.987-9.587" stroke="#00325A" stroke-width="4.793" stroke-linecap="round" stroke-linejoin="round"/></svg>
